img/svg/net/terminal.svg

<?xml version="1.0" encoding="iso-8859-1"?>
<!-- Generator: Adobe Illustrator 21.0.2, SVG Export Plug-In . SVG Version: 6.00 Build 0)  -->
<svg version="1.1" id="&#x56FE;&#x5C42;_1" xmlns="http://www.w3.org/2000/svg" xmlns:xlink="http://www.w3.org/1999/xlink" x="0px"
	 y="0px" viewBox="0 0 16 16" style="enable-background:new 0 0 16 16;" xml:space="preserve">
<g>
	<path style="fill-rule:evenodd;clip-rule:evenodd;" d="M1,2v12h14V2H1z M14,13H2V3h12V13z"/>
	<path style="fill-rule:evenodd;clip-rule:evenodd;" d="M13,4H3v8h10V4z M7,9H6v1H5v1H4v-1h1V9h1V8H5V7H4V6h1v1h1v1h1V9z M11,11H8
		v-1h3V11z"/>
</g>
</svg>

<svg xmlns="http://www.w3.org/2000/svg" viewBox="0 0 16 16"><title>terminal</title><path d="M1,2V14H15V2ZM14,13H2V3H14Z" style="fill-rule:evenodd"/><path d="M3,4v8H13V4ZM7,9H6v1H5v1H4V10H5V9H6V8H5V7H4V6H5V7H6V8H7Zm4,2H8V10h3Z" style="fill-rule:evenodd"/></svg>
